static/logos/butter-wordmark-color.svg

<svg width="100" height="22" viewBox="0 0 100 22" fill="none" xmlns="http://www.w3.org/2000/svg">
<path d="M19.5153 1.37379L15.8674 0.379735C14.5153 0.0228948 13.0357 0.201314 11.7602 0.787552L3.41837 4.78926C1.35205 5.73234 0 7.89886 0 10.1928V12.7671C0 14.9337 1.17347 16.9473 3.06123 17.9923L7.06633 20.2354C8.0102 20.7705 9.0051 20.9999 10 20.9999C11.1225 20.9999 12.2449 20.6941 13.2398 20.0568L21.2246 14.8827C22.9593 13.7612 23.9796 11.875 23.9796 9.83599V7.18519C23.9796 4.43242 22.1427 2.03648 19.5153 1.37379Z" fill="#0A0B1E"/>
<path d="M4.69357 7.49088C3.64764 7.94967 2.98438 9.0202 2.98438 10.1927V12.7671C2.98438 13.8121 3.57111 14.8825 4.515 15.4179L8.5201 17.6608C9.46397 18.1961 10.6885 18.1961 11.5813 17.5333L19.566 12.4356C20.4589 11.9004 20.9691 10.9063 20.9691 9.91229V7.26149C20.9691 5.91058 20.0252 4.73812 18.7242 4.38126L15.0762 3.4382C14.3619 3.25977 13.6731 3.31076 13.0098 3.61661L4.69357 7.49088Z" fill="#FFFD63"/>
<path d="M95.0774 9.58146C94.7456 9.50499 94.8732 9.0462 95.0774 8.71485C95.2814 8.30702 95.4089 7.8992 95.4089 7.44041V7.31297C95.4089 7.03259 95.2048 6.85418 94.9498 6.85418H91.9905C91.7099 6.85418 91.5312 7.05807 91.5312 7.31297V18.8848C91.5312 19.1651 91.7355 19.3436 91.9905 19.3436H95.0264C95.3069 19.3436 95.4855 19.1397 95.4855 18.8848V14.6282C95.4855 11.5441 96.4294 10.2441 99.5161 10.3206C99.7966 10.3206 99.9752 10.1167 99.9752 9.86182V7.10906C99.9752 6.82868 99.7712 6.65027 99.5161 6.65027C96.8121 6.72672 96.1488 7.59333 95.4089 9.19912C95.4089 9.37755 95.2814 9.58146 95.0774 9.58146Z" fill="#0A0B1E"/>
<path d="M90.5596 12.5382C90.5596 8.15421 87.3963 6.14062 84.1564 6.14062C79.9217 6.14062 77.4219 8.96986 77.4219 12.8696C77.4219 16.6419 79.7686 19.5986 84.233 19.5986C87.5239 19.5986 89.488 17.7125 90.1513 15.4949C90.2279 15.2146 90.0239 14.9597 89.743 14.9597H86.784C86.5799 14.9597 86.4013 15.0617 86.3249 15.24C85.84 16.0047 85.2533 16.5144 84.182 16.5144C82.7789 16.5144 81.682 15.6479 81.3503 14.297C81.2739 14.0165 81.4779 13.7618 81.7586 13.7618H90.1003C90.3043 13.7618 90.483 13.7362 90.534 13.3539C90.534 13.252 90.5596 12.8186 90.5596 12.5382ZM84.233 9.17375C85.5086 9.17375 86.4013 9.83647 86.733 11.1364C86.8096 11.4168 86.6053 11.5952 86.3249 11.5952H81.937C81.6563 11.5952 81.4779 11.3148 81.5289 11.0599C81.886 9.93841 82.6259 9.17375 84.233 9.17375Z" fill="#0A0B1E"/>
<path d="M76.5512 9.98943C76.8318 9.98943 77.0102 9.78552 77.0102 9.53064V7.31314C77.0102 7.03276 76.8062 6.85433 76.5512 6.85433H74.4082C74.1278 6.85433 74.0768 6.65042 74.0768 6.39554V3.54082C74.0768 3.26046 73.8725 3.08203 73.6175 3.08203H70.5818C70.3012 3.08203 70.1225 3.28594 70.1225 3.54082V6.37006C70.1225 6.65042 69.9185 6.82885 69.6635 6.82885H68.5919C68.3114 6.82885 68.1328 7.03276 68.1328 7.28764V9.50516C68.1328 9.78552 68.3368 9.96395 68.5919 9.96395H69.6635C69.9439 9.96395 70.1225 10.1678 70.1225 10.4227V15.4695C70.1225 18.5536 71.3471 19.3692 73.8981 19.3692H76.7808C77.0614 19.3692 77.2399 19.1653 77.2399 18.9104V16.6929C77.2399 16.4126 77.0358 16.2341 76.7808 16.2341H75.1225C74.0512 16.2341 74.0512 16.1577 74.0512 14.9597V10.4737C74.0512 10.1933 74.1788 10.0149 74.3828 10.0149H76.5512V9.98943Z" fill="#0A0B1E"/>
<path d="M66.6607 9.98943C66.9414 9.98943 67.1198 9.78552 67.1198 9.53064V7.31314C67.1198 7.03276 66.9158 6.85433 66.6607 6.85433H64.5178C64.2372 6.85433 64.1861 6.65042 64.1861 6.39554V3.54082C64.1861 3.26046 63.9821 3.08203 63.7271 3.08203H60.6912C60.4107 3.08203 60.2321 3.28594 60.2321 3.54082V6.37006C60.2321 6.65042 60.0281 6.82885 59.7728 6.82885H58.7015C58.4208 6.82885 58.2422 7.03276 58.2422 7.28764V9.50516C58.2422 9.78552 58.4464 9.96395 58.7015 9.96395H59.7728C60.0535 9.96395 60.2321 10.1678 60.2321 10.4227V15.4695C60.2321 18.5536 61.4565 19.3692 64.0075 19.3692H66.8394C67.1198 19.3692 67.2984 19.1653 67.2984 18.9104V16.6929C67.2984 16.4126 67.0942 16.2341 66.8394 16.2341H65.1811C64.1095 16.2341 64.1095 16.1577 64.1095 14.9597V10.4737C64.1095 10.1933 64.2372 10.0149 64.4414 10.0149H66.6607V9.98943Z" fill="#0A0B1E"/>
<path d="M48.9494 19.6751C51.1688 19.6751 52.5208 17.9163 53.1841 16.7184C53.2605 16.5145 53.3881 16.2596 53.7198 16.3871C54.0514 16.5145 53.7964 16.9988 53.5922 17.4067C53.3881 17.8144 53.2605 18.2222 53.2605 18.7575V18.885C53.2605 19.1653 53.4645 19.3438 53.7198 19.3438H56.6788C56.9595 19.3438 57.2145 19.1399 57.2145 18.885V7.31316C57.2145 7.03278 56.9341 6.85437 56.6788 6.85437H53.7198C53.4391 6.85437 53.2605 7.05826 53.2605 7.31316V11.4933C53.2605 14.45 51.8575 16.4125 50.3014 16.4125C48.9494 16.4125 48.3371 15.597 48.3371 12.7677V7.31316C48.3371 7.03278 48.0565 6.85437 47.8014 6.85437H44.8422C44.5615 6.85437 44.3831 7.05826 44.3831 7.31316V14.3225C44.3575 17.8654 46.1688 19.6751 48.9494 19.6751Z" fill="#0A0B1E"/>
<path d="M33.9306 2.39373C33.9306 2.11335 33.7266 1.93494 33.4715 1.93494H30.4358C30.1552 1.93494 29.9766 2.13883 29.9766 2.39373V18.8848C29.9766 19.1652 30.1806 19.3437 30.4358 19.3437H33.3949C33.6756 19.3437 33.9306 19.1397 33.9306 18.8848C33.9306 18.5534 33.7266 18.2221 33.5225 17.8652C33.3185 17.4574 33.1145 17.0497 33.4459 16.9222C33.7266 16.8458 33.7776 17.1261 33.8542 17.2535C34.6705 18.8083 35.9459 19.7514 37.8846 19.7514C41.3796 19.7514 43.4203 16.7948 43.4203 13.0224C43.4203 9.25015 41.4052 6.29349 37.8846 6.29349C35.9205 6.29349 34.6449 7.31303 33.8542 8.79135C33.7776 8.99527 33.5735 9.32662 33.3185 9.12271C32.9868 8.99527 33.3185 8.51099 33.5225 8.10317C33.7266 7.77182 33.9306 7.44047 33.9306 7.03264V2.39373ZM36.8389 16.387C35.0276 16.387 33.8796 14.7812 33.8796 12.895C33.8796 11.0089 35.0022 9.37758 36.8389 9.37758C38.8032 9.37758 39.6705 10.9834 39.6705 12.8695C39.6705 14.7556 38.7776 16.387 36.8389 16.387Z" fill="#0A0B1E"/>
</svg>

<svg xmlns="http://www.w3.org/2000/svg" width="290.909" height="64" fill="none" viewBox="0 0 100 22"><path fill="#0A0B1E" d="M19.515 1.374 15.867.38C14.515.023 13.036.2 11.76.788L3.418 4.789C1.352 5.732 0 7.9 0 10.193v2.574a5.979 5.979 0 0 0 3.061 5.225l4.005 2.243A5.87 5.87 0 0 0 10 21a5.981 5.981 0 0 0 3.24-.943l7.985-5.174a5.984 5.984 0 0 0 2.755-5.047v-2.65c0-2.754-1.837-5.15-4.465-5.812Z"/><path fill="#FFFD63" d="M4.694 7.49c-1.046.46-1.71 1.53-1.71 2.703v2.574c0 1.045.587 2.116 1.531 2.65l4.005 2.244c.944.535 2.168.535 3.061-.128l7.985-5.097c.893-.536 1.403-1.53 1.403-2.524v-2.65c0-1.351-.944-2.524-2.245-2.88l-3.648-.944c-.714-.178-1.403-.127-2.066.179L4.694 7.49Z"/><path fill="#0A0B1E" d="M95.077 9.581c-.331-.076-.204-.535 0-.866.204-.408.332-.816.332-1.275v-.127a.442.442 0 0 0-.46-.459H91.99c-.28 0-.459.204-.459.459v11.572c0 .28.204.459.46.459h3.035c.28 0 .46-.204.46-.46v-4.256c0-3.084.943-4.384 4.03-4.307.28 0 .46-.204.46-.46V7.11a.442.442 0 0 0-.46-.459c-2.704.077-3.367.943-4.107 2.55 0 .178-.128.381-.332.381ZM90.56 12.538c0-4.384-3.164-6.397-6.404-6.397-4.234 0-6.734 2.829-6.734 6.729 0 3.772 2.347 6.729 6.811 6.729 3.29 0 5.255-1.887 5.918-4.104a.418.418 0 0 0-.408-.535h-2.959a.482.482 0 0 0-.46.28c-.484.765-1.07 1.274-2.142 1.274-1.403 0-2.5-.866-2.832-2.217a.418.418 0 0 1 .409-.535H90.1c.204 0 .383-.026.434-.408 0-.102.026-.535.026-.816Zm-6.327-3.364c1.276 0 2.168.662 2.5 1.962.077.28-.128.46-.408.46h-4.388c-.28 0-.46-.281-.408-.536.357-1.122 1.097-1.886 2.704-1.886ZM76.551 9.99c.28 0 .46-.204.46-.46V7.314a.442.442 0 0 0-.46-.459h-2.143c-.28 0-.331-.204-.331-.458V3.54a.442.442 0 0 0-.46-.459h-3.035c-.28 0-.46.204-.46.459v2.83c0 .28-.204.458-.459.458h-1.071c-.28 0-.46.204-.46.459v2.217c0 .28.205.459.46.459h1.072c.28 0 .459.204.459.459v5.046c0 3.085 1.224 3.9 3.775 3.9h2.883c.28 0 .459-.204.459-.459v-2.217a.442.442 0 0 0-.46-.459h-1.657c-1.072 0-1.072-.076-1.072-1.274v-4.486c0-.28.128-.46.332-.46h2.168V9.99ZM66.66 9.99c.281 0 .46-.204.46-.46V7.314a.442.442 0 0 0-.46-.459h-2.142c-.28 0-.332-.204-.332-.458V3.54a.442.442 0 0 0-.459-.459h-3.036c-.28 0-.459.204-.459.459v2.83c0 .28-.204.458-.46.458h-1.07c-.281 0-.46.204-.46.459v2.217c0 .28.204.459.46.459h1.07c.282 0 .46.204.46.459v5.046c0 3.085 1.224 3.9 3.775 3.9h2.832c.28 0 .46-.204.46-.459v-2.217a.442.442 0 0 0-.46-.459h-1.658c-1.072 0-1.072-.076-1.072-1.274v-4.486c0-.28.128-.46.332-.46h2.22V9.99ZM48.95 19.675c2.219 0 3.57-1.759 4.234-2.957.077-.203.204-.458.536-.33.331.127.076.61-.128 1.019a2.859 2.859 0 0 0-.331 1.35v.128c0 .28.203.459.459.459h2.959c.28 0 .535-.204.535-.459V7.313c0-.28-.28-.459-.535-.459h-2.96c-.28 0-.459.204-.459.46v4.18c0 2.956-1.402 4.919-2.959 4.919-1.352 0-1.964-.816-1.964-3.645V7.313c0-.28-.28-.459-.536-.459h-2.959c-.28 0-.459.204-.459.46v7.008c-.026 3.543 1.786 5.353 4.566 5.353ZM33.93 2.394a.442.442 0 0 0-.459-.46h-3.035c-.28 0-.46.205-.46.46v16.49c0 .281.205.46.46.46h2.959c.28 0 .536-.204.536-.46 0-.33-.204-.662-.408-1.019-.205-.408-.409-.815-.077-.943.28-.076.332.204.408.331.816 1.555 2.092 2.498 4.03 2.498 3.496 0 5.536-2.956 5.536-6.729 0-3.772-2.015-6.729-5.535-6.729-1.965 0-3.24 1.02-4.03 2.498-.077.204-.281.536-.536.332-.332-.128 0-.612.203-1.02.205-.331.409-.663.409-1.07v-4.64Zm2.909 13.993c-1.811 0-2.96-1.606-2.96-3.492s1.123-3.517 2.96-3.517c1.964 0 2.831 1.605 2.831 3.492 0 1.886-.892 3.517-2.831 3.517Z"/></svg>
